X: 23921
T: Loch Rannoch
R: waltz
M: 3/4
K: Dmajor
|:D4 F2|A4 B2|d4 B2|ABB4|D4 F2|A4 B2|AFF4|E6|
D4 F2|A4 B2|d4 B2|ABB4|D4 F2|A4 F2|E6|D6:|
|:B4 c2|d4 c2|B4 A2|FAA4|B4 A2|d4 F2|E4 D2|EFF4|
A4 F2|d4 A2|B4 d2|BAA4|D4 F2|A4 F2|E6|D6:|

